svg/fluentui-system-icons/ic_fluent_arrow_next_20_regular.svg

<svg width="20" height="20" viewBox="0 0 20 20" fill="none" xmlns="http://www.w3.org/2000/svg">
<path d="M13.5 5C13.7455 5 13.9496 5.17688 13.9919 5.41012L14 5.5V14.5C14 14.7761 13.7761 15 13.5 15C13.2545 15 13.0504 14.8231 13.0081 14.5899L13 14.5V5.5C13 5.22386 13.2239 5 13.5 5ZM5.64645 5.14645C5.82001 4.97288 6.08944 4.9536 6.28431 5.08859L6.35355 5.14645L10.8536 9.64645C11.0271 9.82001 11.0464 10.0894 10.9114 10.2843L10.8536 10.3536L6.35355 14.8536C6.15829 15.0488 5.84171 15.0488 5.64645 14.8536C5.47288 14.68 5.4536 14.4106 5.58859 14.2157L5.64645 14.1464L9.79289 10L5.64645 5.85355C5.45118 5.65829 5.45118 5.34171 5.64645 5.14645Z" fill="#212121"/>
</svg>

<svg xmlns="http://www.w3.org/2000/svg" width="20" height="20"><path d="M13.5 5a.5.5 0 0 1 .492.41L14 5.5v9a.5.5 0 0 1-.992.09L13 14.5v-9a.5.5 0 0 1 .5-.5Zm-7.854.146a.5.5 0 0 1 .638-.057l.07.057 4.5 4.5a.5.5 0 0 1 .057.638l-.057.07-4.5 4.5a.5.5 0 0 1-.765-.638l.057-.07L9.793 10 5.646 5.854a.5.5 0 0 1 0-.708Z"/></svg>
